!!! OTL: GE-, Er\, Li\, Tai\
!!! YEC: COpyright 2001, Chia-wei Lee
!! For Voice Only
**kern	**silbe
*clefG2	*LXinhua
*F:	*ping-ying
*M2/4	*
=4	=4
8f	Ge-
16f	Er\
16g	Li\
(8a	Tai\
8b-)	|
=5	=5
(8.cc	Jin-
16cc)	Tien-
8cc	Sh/
8b	Zai\
=6	=6
4a	yi\
4c	Wai\
=7	=7
8d	Wei\
8e	He/
8f	Ni^
8g	Bu\
=8	=8
4f	Deng^
4c	Dai\
=9	=9
8f	Lie\
8g	Huo^
8a	Ban-
8b-	De
=10	=10
8cc	Sing-
4dd;	Qing/
(16cc	Lai/
16b-)	|
=11	=11
4a	Zhao^
4c	Ni^
=12	=12
8d	Chang\
8e	Peng/
8f	Bu/
8g	Zai\
=13	=13
(8e	Ni^
4e)	Yeh^
8c	Bu/
=14	=14
2c	Zai
*-	*-
